icons/svg/chat_40.svg

<?xml version="1.0" encoding="UTF-8"?>
<svg width="40px" height="40px" viewBox="0 0 40 40" version="1.1" xmlns="http://www.w3.org/2000/svg" xmlns:xlink="http://www.w3.org/1999/xlink">
    <!-- Generator: Sketch 55.2 (78181) - https://sketchapp.com -->
    <title>activities/chat_40</title>
    <desc>Created with Sketch.</desc>
    <g id="Icons-Webex" stroke="none" stroke-width="1" fill="none" fill-rule="evenodd">
        <g id="activities/chat_40" fill="#000000">
            <g id="fill">
                <path d="M10.2701,36.3818 C10.3571,36.3818 10.4431,36.4038 10.5201,36.4488 C13.4081,38.1178 16.6871,38.9998 20.0001,38.9998 C30.4771,38.9998 39.0001,30.4768 39.0001,19.9998 C39.0001,9.5238 30.4771,0.9998 20.0001,0.9998 C9.5231,0.9998 1.0001,9.5238 1.0001,19.9998 C1.0001,23.3138 1.8821,26.5908 3.5511,29.4798 C3.6171,29.5938 3.6351,29.7308 3.6011,29.8598 L1.2071,38.7928 L10.1411,36.3988 C10.1831,36.3878 10.2271,36.3818 10.2701,36.3818 M0.5001,39.9998 C0.3691,39.9998 0.2411,39.9478 0.1461,39.8538 C0.0201,39.7278 -0.0289,39.5428 0.0171,39.3698 L2.5821,29.7988 C0.8921,26.8028 0.0001,23.4198 0.0001,19.9998 C0.0001,8.9718 8.9721,-0.0002 20.0001,-0.0002 C31.0281,-0.0002 40.0001,8.9718 40.0001,19.9998 C40.0001,31.0278 31.0281,39.9998 20.0001,39.9998 C16.5801,39.9998 13.1961,39.1078 10.2011,37.4178 L0.6291,39.9838 C0.5871,39.9938 0.5431,39.9998 0.5001,39.9998"></path>
            </g>
        </g>
    </g>
</svg>

<svg width="40" height="40" xmlns="http://www.w3.org/2000/svg"><path d="M10.27 36.382c.087 0 .173.022.25.067a18.978 18.978 0 009.48 2.55c10.477 0 19-8.522 19-19C39 9.525 30.477 1 20 1S1 9.525 1 20c0 3.315.882 6.592 2.551 9.48a.503.503 0 01.05.38l-2.394 8.934 8.934-2.394a.513.513 0 01.13-.017M.5 40a.502.502 0 01-.483-.63l2.564-9.571A19.973 19.973 0 010 19.999C0 8.973 8.972 0 20 0s20 8.973 20 20c0 11.029-8.972 20-20 20a19.97 19.97 0 01-9.799-2.581L.63 39.984A.562.562 0 01.5 40" fill="#000" fill-rule="evenodd"/></svg>
